X: 146
T: The Earth Only Endures
C: Teton Sioux band 1911-1914
N: Derived from sioux142.krn
O: South Dakota, U.S.A.
N: Teton Sioux Music by Frances Densmore, 1918
Z: transcribed to **kern format by Craig Sapp
L: 1/8
M: 2/4
Q: 1/4=58
K: C clef=bass
%%linebreak <none>
C/ [I:setbarnb 1]| 
E> C E3/ C/ | 
C2C2 | 
A,2A,3/ A,/ | 
E> C E3/ C/ ||  
[M:3/4]C2C4 | 
C2C7/E/ | 
E> CC2A,3/ E/ | 
C2C3A, ||  
[M:2/4]C> A,E,2 ||  
[M:3/4]E,> D,C,2A,,2 | 
C,2C, C,/ C,< C, E,/ | 
(3E, D, C, (3D, C, C,A,,2 ||  
[M:2/4]A,,4 ||  
[M:3/4]A,,4A,3/ C/ | 
C> C C> E (E3/ C/) ||  
[M:2/4]C2A,3/ E/ | 
C C/ C/ C A, | 
C A,/ A,/ E,/ D,/ E,3// D,// | 
C,2A,,2 ||  
[M:3/4]C, C,C,2C,3/ E,/ | 
(3(E, D,) C, (3(D, C,) C,A,,2 ||  
[M:2/4]A,,4 | 
A,,4 |]  



